!!!COM: Bach, Johann Sebastian
!!!OTL: 19. Ich hab' mein' Sach' Gott heimgestellt
!!!ONM: No. 19
!!!OCL: Erk
!!!SCA: BWV 351
!!!YOE: Riemenschneider, Albert
!!!OPR: 371 Harmonized Chorales and 69 Chorale Melodies with Figured Bass
!!!OPT: Bach Chorale Harmonizations
**harm	**root	**kern	**kern	**kern	**kern
!	!	!bass	!tenor	!alto	!sprno
*Iorgan	*Iorgan	*Iorgan	*Iorgan	*Iorgan	*Iorgan
*k[b-e-a-]	*k[b-e-a-]	*k[b-e-a-]	*k[b-e-a-]	*k[b-e-a-]	*k[b-e-a-]
*f:	*f:	*f:	*f:	*f:	*f:
*met(c)	*met(c)	*met(c)	*met(c)	*met(c)	*met(c)
*M4/4	*M4/4	*M4/4	*M4/4	*M4/4	*M4/4
*MM60	*MM60	*MM60	*MM60	*MM60	*MM60
i	4GG	4F	4A-	4c	4f
=1	=1	=1	=1	=1	=1
i	4GG	8F	8A-	4c	4f
.	.	8E-	8G	.	.
vii/V	4CC#	4D-	4F	8c	4f
.	.	.	.	8B	.
V	4DD	8C	4G	4c	4e
.	.	8BB-	.	.	.
ib	4GG	8AA-	4c	8f	4a-
.	.	8FF	.	8e-	.
=2	=2	=2	=2	=2	=2
iib	4AA	4BB-	4B-	8d-	4g
.	.	.	.	8c	.
viioD7/V	4CC#	4BB	8A-	4d	4f
.	.	.	8G	.	.
V;	4DD;	4C;	4G;	4c;	4e;
V	4DD	8C	4G	4c	4e
.	.	[8D-	.	.	.
=3	=3	=3	=3	=3	=3
V7	4DD	8D-]	4G	4B-	4e
.	.	[8C	.	.	.
V	4DD	8C]	4G	4c	4e
.	.	[8BB-	.	.	.
Ib	4GG	8BB-]	4F	4c	4f
.	.	8AA	.	.	.
IV	4CC	8BB-	4F	4B-	4d
.	.	8AA-	.	.	.
=4	=4	=4	=4	=4	=4
viioD7b	4FF#	4GG	8G	8B-	4e
.	.	.	8B-	8d-	.
V7	4DD	4C	8B-	4c	4e
.	.	.	16A-	.	.
.	.	.	16G	.	.
I;	4GG;	4FF;	4A-;	4c;	4f;
-VII	4FF	4E-	4B-	4e-	4g
=5	=5	=5	=5	=5	=5
!!linebreak: 2
-VII	4FF	8E-	4B-	4e-	4g
.	.	8F	.	.	.
IVb	4CC	8E-	4B-	4f	4b-
.	.	8D	.	.	.
-VII	4FF	8E-	4B-	4e-	4g
.	.	[8D-	.	.	.
IIIb	4BB-	8D-]	4A-	4e-	4e-
.	.	8C	.	.	.
=6	=6	=6	=6	=6	=6
VI	4EE-	8D-	4A-	8d-	4f
.	.	8D	.	8c	.
-VII	8FF	8E-	8G	8B-	4g
viioD7	8FF#	8E	8B-	8d-	.
i;	4GG;	4F;	4A-;	4c;	4a-;
i	4GG	4FF	4c	[4f	4a-
=7	=7	=7	=7	=7	=7
V	4DD	4C	4.c	8f]	4g
.	.	.	.	8e	.
ivb	4CC	4D-	.	8f	4f
.	.	.	8B-	8F	.
V;	4DD;	4C;	4G;	4c;	4e;
V	4DD	4C	4G	4c	4e
=8	=8	=8	=8	=8	=8
viib	4FF#	8GG	4G	8B-	4e
.	.	8AA-	.	8c	.
viioD7c	4FF#	4BB-	4G	8d-	4e
.	.	.	.	8c	.
ib	4GG	8AA-	[4F	4c	4f
.	.	8AA	.	.	.
IV	8CC	8BB-	16F]	4d	4d
.	.	.	16G	.	.
viioD7/V	8CC#	8BB	8A-y	.	.
=9	=9	=9	=9	=9	=9
V	4DD	4C	8G	4c	4e
.	.	.	8F	.	.
V	4DD	4CC	16G	4c	4e
.	.	.	16A-	.	.
.	.	.	8B-	.	.
I;	4GG;	4FF;	8B-	4c;	4f;
.	.	.	8A;	.	.
==	==	==	==	==	==
*-	*-	*-	*-	*-	*-
!!!CDT: 1685/3//-1750/7/28
!!!OCY: Deutschland
!!!AGN: chorale
!!!AST: Baroque
!!!AIN: vox
!!!YOY: 1941
!!!PPP: New York; London
!!!PPR: G. Schirmer
!!!ENC: David Huron
!!!EED: David Huron
!!!YEN: United States of America
!!!YER: 1992
!!!YEC: Copyright 1992 David Huron
!!!YEM: Rights to all derivative electronic formats reserved.
!!!YER: March 20, 1996
!!!AMT: simple quadruple
!!!EEV: 1.1
!!chor2scor: -l 2 -s 0.6 -o %b.pmx
